public/assets/techs/docker.svg

<svg width="20" height="20" viewBox="0 0 20 20" fill="none" xmlns="http://www.w3.org/2000/svg">
<g clip-path="url(#clip0_310_59)">
<path d="M8 3.60001V5.60001H4V7.60001H2V9.60001H0.45C0.259375 9.60313 0.0984376 9.73907 0.0625 9.92501C0.0625 9.92501 0 10.2672 0 10.7C0 10.975 0.028125 11.2734 0.075 11.575C0.0515624 11.5813 0.0203125 11.5953 0 11.6H0.075C0.190625 12.3234 0.45625 13.0938 0.9 13.825C0.901562 13.8281 0.898438 13.8344 0.9 13.8375C0.903125 13.8453 0.907812 13.8547 0.9125 13.8625C0.932812 13.9578 0.985938 14.0422 1.0625 14.1C1.07031 14.1047 1.07969 14.1094 1.0875 14.1125C1.21094 14.2906 1.34063 14.4688 1.4875 14.6375C2.55781 15.8719 4.29531 16.8 6.8 16.8C10.8891 16.8 14.3469 15.0578 16.3 11.6H19.9375C19.5031 11.4906 18.5703 11.3438 18.725 10.775C18.2078 11.3734 17.2234 11.4484 16.4625 11.3125C16.6078 11.0375 16.7484 10.7578 16.875 10.4625C18.0312 10.4328 18.8609 10.0609 19.325 9.61251C19.8328 9.12188 19.9875 8.57501 19.9875 8.57501C20.0266 8.42188 19.9734 8.26094 19.85 8.16251C19.85 8.16251 18.8391 7.42501 17.325 7.67501C16.8938 6.26094 15.775 5.57501 15.775 5.57501C15.6922 5.52657 15.5953 5.50782 15.5 5.52501C15.4359 5.53907 15.375 5.56876 15.325 5.61251C15.325 5.61251 15.0578 5.84063 14.8375 6.25001C14.6172 6.65938 14.4141 7.28282 14.4875 8.08751C14.5219 8.46407 14.6406 8.82188 14.8125 9.16251C14.7156 9.22188 14.6594 9.27188 14.5 9.33751C14.1687 9.47501 13.6859 9.60001 13 9.60001H12.8V7.60001H10.8V3.60001H8ZM8.8 4.40001H10V5.60001H8.8V4.40001ZM4.8 6.40001H6V7.60001H4.8V6.40001ZM6.8 6.40001H8V7.60001H6.8V6.40001ZM8.8 6.40001H10V7.60001H8.8V6.40001ZM15.6375 6.48751C15.9344 6.70782 16.4719 7.16876 16.6625 8.17501C16.6828 8.28594 16.7484 8.38126 16.8438 8.44063C16.9391 8.50001 17.0547 8.51719 17.1625 8.48751C18.1828 8.20782 18.7344 8.43751 19.0375 8.61251C18.9797 8.73907 18.9891 8.81719 18.7625 9.03751C18.3984 9.38907 17.7812 9.74376 16.625 9.70001C16.4562 9.69376 16.3016 9.79376 16.2375 9.95001C16.0781 10.3484 15.8937 10.7172 15.7 11.075C15.6406 11.0406 15.5906 11 15.55 10.9625C15.0141 11.7391 11.9047 11.4422 11.6875 10.8375C11.0172 11.625 8.93437 11.625 8.2625 10.8375C8.04531 11.4422 4.92344 11.7391 4.3875 10.9625C3.90781 11.4125 2.01406 11.6891 1.225 10.775C1.3 11.05 1.10625 11.2281 0.85 11.35C0.817188 11.1219 0.8 10.9047 0.8 10.7C0.8 10.5281 0.8125 10.5125 0.825 10.4H13C13.7875 10.4 14.3781 10.25 14.8 10.075C15.2219 9.90001 15.5219 9.68751 15.5625 9.66251C15.6594 9.60157 15.725 9.50313 15.7438 9.39063C15.7625 9.27969 15.7328 9.16407 15.6625 9.07501C15.4406 8.78594 15.325 8.42344 15.2875 8.01251C15.2297 7.36719 15.3813 6.91563 15.5375 6.62501C15.5906 6.52657 15.5937 6.54688 15.6375 6.48751ZM2.8 8.40001H4V9.60001H2.8V8.40001ZM4.8 8.40001H6V9.60001H4.8V8.40001ZM6.8 8.40001H8V9.60001H6.8V8.40001ZM8.8 8.40001H10V9.60001H8.8V8.40001ZM10.8 8.40001H12V9.60001H10.8V8.40001ZM0.9 11.6H15.4C13.5641 14.5656 10.5156 16 6.8 16C4.6125 16 3.19375 15.2578 2.2625 14.275C4.0375 14.3594 5.4125 13.8875 5.4125 13.8875C5.63281 13.8594 5.79063 13.6578 5.7625 13.4375C5.73438 13.2172 5.53281 13.0594 5.3125 13.0875C5.29063 13.0906 5.27031 13.0938 5.25 13.1C5.21563 13.1047 5.18281 13.1125 5.15 13.125C5.15 13.125 3.51406 13.6828 1.6 13.4125C1.24063 12.8203 1.01406 12.1859 0.9 11.6ZM6.4 12.4C6.17969 12.4 6 12.5797 6 12.8C6 13.0203 6.17969 13.2 6.4 13.2C6.62031 13.2 6.8 13.0203 6.8 12.8C6.8 12.7453 6.79531 12.6969 6.775 12.65C6.74688 12.7 6.68594 12.7375 6.625 12.7375C6.53438 12.7375 6.4625 12.6531 6.4625 12.5625C6.4625 12.5016 6.50156 12.4531 6.55 12.425C6.50469 12.4078 6.45156 12.4 6.4 12.4Z" fill="#EEEEEE"/>
</g>
<defs>
<clipPath id="clip0_310_59">
<rect width="20" height="20" fill="white"/>
</clipPath>
</defs>
</svg>

<svg xmlns="http://www.w3.org/2000/svg" width="20" height="20" fill="none" xmlns:v="https://vecta.io/nano"><g clip-path="url(#A)"><path d="M8 3.6v2H4v2H2v2H.45a.4.4 0 0 0-.387.325S0 10.267 0 10.7a5.79 5.79 0 0 0 .075.875c-.023.006-.055.02-.075.025h.075c.116.723.381 1.494.825 2.225.003.02.008.03.012.038a.4.4 0 0 0 .15.237c.008.005.017.009.025.013l.4.525C2.558 15.872 4.295 16.8 6.8 16.8c4.089 0 7.547-1.742 9.5-5.2h3.637c-.434-.109-1.367-.256-1.212-.825-.517.598-1.502.673-2.263.537.145-.275.286-.555.413-.85 1.156-.03 1.986-.402 2.45-.85.508-.491.663-1.037.663-1.037a.4.4 0 0 0-.137-.413s-1.011-.737-2.525-.487c-.431-1.414-1.55-2.1-1.55-2.1-.083-.048-.18-.067-.275-.05-.064.014-.125.044-.175.088 0 0-.267.228-.487.637a3.23 3.23 0 0 0-.35 1.838c.034.377.153.734.325 1.075-.097.059-.153.109-.312.175-.331.137-.814.262-1.5.262h-.2v-2h-2v-4H8zm.8.8H10v1.2H8.8V4.4zm-4 2H6v1.2H4.8V6.4zm2 0H8v1.2H6.8V6.4zm2 0H10v1.2H8.8V6.4zm6.837.088c.297.22.834.681 1.025 1.688.02.111.086.206.181.266a.4.4 0 0 0 .319.047c1.02-.28 1.572-.05 1.875.125-.058.127-.048.205-.275.425-.364.352-.981.706-2.137.663-.169-.006-.323.094-.387.25-.159.398-.344.767-.538 1.125a.85.85 0 0 1-.15-.112c-.536.777-3.645.48-3.863-.125-.67.787-2.753.787-3.425 0-.217.605-3.339.902-3.875.125-.48.45-2.373.727-3.162-.187.075.275-.119.453-.375.575-.033-.228-.05-.445-.05-.65 0-.172.012-.187.025-.3H13c.787 0 1.378-.15 1.8-.325s.722-.387.762-.412c.097-.061.162-.159.181-.272s-.011-.227-.081-.316c-.222-.289-.338-.652-.375-1.062-.058-.645.094-1.097.25-1.388.053-.098.056-.078.1-.137zM2.8 8.4H4v1.2H2.8V8.4zm2 0H6v1.2H4.8V8.4zm2 0H8v1.2H6.8V8.4zm2 0H10v1.2H8.8V8.4zm2 0H12v1.2h-1.2V8.4zM.9 11.6h14.5c-1.836 2.966-4.884 4.4-8.6 4.4-2.187 0-3.606-.742-4.537-1.725 1.775.084 3.15-.388 3.15-.388.22-.028.378-.23.35-.45s-.23-.378-.45-.35c-.022.003-.042.006-.062.012-.034.005-.067.013-.1.025 0 0-1.636.558-3.55.287A5.59 5.59 0 0 1 .9 11.6zm5.5.8a.4.4 0 0 0 0 .8.4.4 0 0 0 .4-.4c0-.055-.005-.103-.025-.15a.18.18 0 0 1-.15.088c-.091 0-.162-.084-.162-.175 0-.061.039-.109.087-.137a.43.43 0 0 0-.15-.025z" fill="#019bc6"/></g><defs><clipPath id="A"><path fill="#fff" d="M0 0h20v20H0z"/></clipPath></defs></svg>
